!!!OTL: FRISCH AUF FRISCH AUF
!!!ARE: Europa, Mitteleuropa, Deutschland
!!!SCT: F0622
!!!YEM: Copyright 1995, estate of Helmut Schaffrath.
**kern
*ICvox
*Ivox
*M4/4
*k[f#c#]
*D:
{8d
=1
4.A
8f#
8d
8f#
8d
8f#
=2
4.a}
{8g
8f#
8e
8d
8f#
=3
4e
4r}
{4e
8e
8f#
=4
8e
8d
8c#
8B
8A}
{8B
8c#
8d
=5
4e
4e
4A
4r}
=6
{4c#
8.c#
16c#
4d
8r
8d
=7
4.d#
8d#
4e
4r}
=8
{4g
8f#
8e
8d
8c#
8d
8f#
=9
2.e
8r}
{8d
=10
4.A
8f#
8d
8f#
8d
8f#
=11
4.a}
{16f#
16g
4a
16e
16f#
16g
16c#
=12
2d
4.r}
==
!!!AGN: Soldaten -, Reiter - Lied
!!!ONB: ESAC (Essen Associative Code) Database: FINK
!!!AMT: simple quadruple
!!!AIN: vox
!!!EED: Helmut Schaffrath
!!!EEV: 1.0
*-
